X:1
T:Empty Chairs at Empty Tables
T:Empty Chairs at Empty Tables
T:Claude-Michel Schönberg
C:Claude-Michel Schönberg
Z:All Rights Reserved
L:1/8
M:4/4
K:C
V:1 treble 
%%MIDI program 40
%%MIDI control 7 100
%%MIDI control 10 64
V:1
"Am9" z2 AA BAGF | F E3- E2 z2 | z2 AA BAG>F |"C" E G3- G2 z2 | z2 GG A>GF>E |"Dm" E D3 z2 EF | %6
w: There's a grief that can't be|spo- ken _|There's a pain goes on and|on _ _|Emp- ty chairs at emp- ty|ta- bles Now my|
w: Here they talked of re- vo-|lu- tion _|Here it was they lit the|flame _ _|Here they sang a- bout to|mor- row and to-|
w: Oh, my friends, my friends for-|give me _|that i live and you are|gone. _ _|There's a grief that can't be|spo- ken there a|
"E" E3 E B,3 C!dacoda! |1"Am9" E8 ||2 A,8 || z6 CC |"C7" C C3- C2 D>C |"F" C A,3 z2 CD | %12
w: friends are dead and|gone|came|From the|ta- ble * in the|cor- ner they could|
w: mor- row ne- ver||||||
w: pain goes on and||||||
"Cm7" _E3 F"F9" G3 F |"Bb" F D3- D2 DE |"Bm7b5" F3 G"G7" A2 G2 |"C" G E3 (3z2 C2 d2 |"Bb" d6 d2 | %17
w: see a world re-|born _ _ and they|rose with voi- ces|ring- ing I can|hear them|
w: |||||
w: |||||
"A" ^c3 c d e3 |"Dm" f2 e2"Dm/C" d A3 |"Bb" F4-"Bb/A" F2 z f |"Gm" g2 f2 e2 d2 |"G9" A F3 z4 | %22
w: now The ve- ry|words that they had|sung * be-|came their las com-|mu- nion|
w: |||||
w: |||||
"F" z2 cc dc_BA |"Am" !fermata!A6 z G |"Am9" [AA]8!D.C.! |O"C#m" E8 |[K:E] z2 cc dcBA | %27
w: on the lone- ly bar- ri-|cade at|dawn.|on|Phan- tom fa- ces at the|
w: |||||
w: |||||
 A G3 G2 z2 | z2 cc dcBA |"E" G B3- B2 z2 | z2 BB cBAG |"F#m" G F3 z2 GA |"G#" G3 G D2 E2 | %33
w: win- dow _|Phan- tom sha- dows on the|floor _ _|Emp- ty chairs at emp- ty|ta- bles Where my|friends will meet no|
w: ||||||
w: ||||||
"C#m" G8 | z2 cc dc!fermata!e>d | d G3- G2 z2 | z2 cc dcBA |"E" G B3- B2 z2 | z2 BB cBAG | %39
w: more.|Oh, my friends, my friends, don't|ask me _|What your sac- ri- fice was|for. _ _|Emp- ty chairs at emp- ty|
w: ||||||
w: ||||||
"F#m" G F3 z2 GA |"G#" !fermata!G3 G D2 E2 |"C#m" C8 |"C#m7" z8 |"C#m6" z8 |"C#m9" z8 | z8 |] %46
w: ta- bles, where my|friends will sing no|more.|||||
w: |||||||
w: |||||||

